packages/icons/src/components/Logo/assets/light/dask.svg

<svg width="20" height="20" viewBox="0 0 20 20" fill="none" xmlns="http://www.w3.org/2000/svg">
<path d="M17.9714 8.50959C17.9837 8.37704 17.9941 8.24448 18.0027 8.11193C18.1507 5.82478 17.6914 3.53915 16.6712 1.48678L15.93 0L15.5866 1.62752C15.1902 3.49539 14.3484 5.23984 13.1329 6.7124C11.9173 8.18497 10.364 9.34205 8.60506 10.0852L8.09513 10.3008L8.28838 10.8202C8.91436 12.495 9.14915 14.2908 8.9748 16.0703C8.88286 17.032 8.67411 17.979 8.35316 18.8902L7.9622 20L9.07924 19.6325C11.4819 18.8431 13.6025 17.3706 15.1817 15.3953C16.761 13.4199 17.7304 11.0271 17.9714 8.50959ZM10.3901 17.8313L9.7947 18.1345L9.92372 17.4794C10.0089 17.0496 10.0725 16.6159 10.1142 16.1797C10.2774 14.5005 10.1102 12.8055 9.62212 11.1905L9.54337 10.9285L9.78744 10.8068C12.5139 9.4413 14.6773 7.16572 15.9032 4.37376L16.2847 3.50359L16.5148 4.42514C16.8384 5.72279 16.9372 7.0663 16.8069 8.39733C16.6227 10.3842 15.9374 12.2919 14.8152 13.9419C13.6929 15.5918 12.1704 16.93 10.3901 17.8313Z" fill="url(#paint0_linear_341_676)"/>
<path d="M15.1983 9.14907C15.6451 8.1577 16.1137 5.69463 16.0841 5.51088C15.6254 6.37891 15.0747 7.19512 14.4415 7.94546C14.3493 8.18953 14.2522 8.43137 14.1438 8.67154C13.365 10.3912 12.1861 11.8997 10.7056 13.071C10.767 13.5156 10.8059 13.9633 10.8223 14.4142C12.7258 13.0824 14.237 11.2641 15.1983 9.14907Z" fill="url(#paint1_linear_341_676)"/>
<path d="M8.36767 14.5131C7.30445 15.0095 6.1734 15.3453 5.01153 15.5095L4.35081 15.6028L4.68592 15.0258C4.90598 14.6468 5.10693 14.2571 5.288 13.858C5.98798 12.3228 6.38038 10.6653 6.44302 8.97929L6.45307 8.70618L6.72395 8.66988C8.84322 8.38409 10.86 7.58264 12.5973 6.33583C13.4917 5.26261 14.1769 4.03121 14.6175 2.70545C13.6006 4.11501 12.2862 5.28373 10.7674 6.12884C9.24856 6.97395 7.56252 7.47477 5.82865 7.59584L5.27627 7.63438L5.288 8.18899C5.3359 9.97684 4.97445 11.752 4.23128 13.3787C3.83207 14.2585 3.32717 15.0864 2.72775 15.844L2 16.7678L3.1768 16.7835C4.94952 16.8051 6.70785 16.463 8.3431 15.7781C8.37485 15.3573 8.38305 14.9349 8.36767 14.5131Z" fill="url(#paint2_linear_341_676)"/>
<defs>
<linearGradient id="paint0_linear_341_676" x1="2.39153" y1="9.48285" x2="17.0229" y2="12.7196" gradientUnits="userSpaceOnUse">
<stop offset="0.01" stop-color="#C7422F"/>
<stop offset="0.37" stop-color="#D46E43"/>
<stop offset="1" stop-color="#EEB575"/>
</linearGradient>
<linearGradient id="paint1_linear_341_676" x1="3.41291" y1="9.29506" x2="15.9251" y2="11.601" gradientUnits="userSpaceOnUse">
<stop offset="0.21" stop-color="#CF603B"/>
<stop offset="1" stop-color="#EEB575"/>
</linearGradient>
<linearGradient id="paint2_linear_341_676" x1="1924.91" y1="2684.19" x2="4311.51" y2="2684.19" gradientUnits="userSpaceOnUse">
<stop offset="0.21" stop-color="#CF603B"/>
<stop offset="1" stop-color="#EEB575"/>
</linearGradient>
</defs>
</svg>

<svg xmlns="http://www.w3.org/2000/svg" width="20" height="20" fill="none" viewBox="0 0 20 20">
    <path fill="url(#a)" d="M17.971 8.51q.019-.2.032-.398a13 13 0 0 0-1.332-6.625L15.93 0l-.343 1.628a11.85 11.85 0 0 1-6.982 8.457l-.51.216.193.52c.626 1.674.861 3.47.687 5.25-.092.961-.3 1.908-.622 2.82L7.963 20l1.116-.367A13.01 13.01 0 0 0 17.971 8.51m-7.58 9.321-.596.303.129-.655q.128-.645.19-1.3a12.9 12.9 0 0 0-.492-4.988l-.079-.263.244-.121a13.07 13.07 0 0 0 6.116-6.433l.382-.87.23.921c.323 1.298.422 2.641.292 3.972a11.8 11.8 0 0 1-6.417 9.434"/>
    <path fill="url(#b)" d="M15.198 9.15c.447-.992.916-3.455.886-3.64a13.7 13.7 0 0 1-1.642 2.435q-.138.366-.298.727a11.84 11.84 0 0 1-3.438 4.399q.092.667.116 1.343a13 13 0 0 0 4.376-5.265"/>
    <path fill="url(#c)" d="M8.368 14.513a11.9 11.9 0 0 1-3.356.996l-.661.094.335-.577q.33-.57.602-1.168a12.9 12.9 0 0 0 1.155-4.879l.01-.273.271-.036a13.1 13.1 0 0 0 5.873-2.334 11.2 11.2 0 0 0 2.02-3.63 11.86 11.86 0 0 1-8.788 4.89l-.553.038.012.555a11.7 11.7 0 0 1-1.057 5.19c-.399.88-.904 1.707-1.503 2.465L2 16.768l1.177.015c1.773.022 3.53-.32 5.166-1.005q.048-.631.025-1.265"/>
    <defs>
        <linearGradient id="a" x1="2.392" x2="17.023" y1="9.483" y2="12.72" gradientUnits="userSpaceOnUse">
            <stop offset=".01" stop-color="#c7422f"/>
            <stop offset=".37" stop-color="#d46e43"/>
            <stop offset="1" stop-color="#eeb575"/>
        </linearGradient>
        <linearGradient id="b" x1="3.413" x2="15.925" y1="9.295" y2="11.601" gradientUnits="userSpaceOnUse">
            <stop offset=".21" stop-color="#cf603b"/>
            <stop offset="1" stop-color="#eeb575"/>
        </linearGradient>
        <linearGradient id="c" x1="1924.91" x2="4311.51" y1="2684.19" y2="2684.19" gradientUnits="userSpaceOnUse">
            <stop offset=".21" stop-color="#cf603b"/>
            <stop offset="1" stop-color="#eeb575"/>
        </linearGradient>
    </defs>
</svg>
